X:10
T:Lichtmann 10
C:M. Praetorious
M:2/4
L:1/8
Q:"Pomposo" 1/4=80
K:G
!ff!B/c/"_marcato"d dd|d3c|(BG) GA|F2D2|B/c/d dd|d3c|BG GA|G4||
B/c/d/e/ dd|d3c|B/A/G GA|(F/G/)F/E/ D2|B/c/d d/e/d/e/|d3c|B/A/G GA|G3 "_mp"B||
BG GA|BG cA|BG GA|F2DB|BG GA|BG cA|BG GA|D3B||
B/A/G GA|B/A/G c/B/A|BG G/F/G/A/|F>E DB|B/A/G GA|B/A/G/B/ c/B/A/c/|BG G(A//G//F//E//)|D4||
B/c/d dd|d3c|BG GA|F>E DG/A/|B/c/d/e/ dd|d3 c|B/A/G/F/ G/F/G/A/|G4|]

